X: 1
T: Tarantella Siciliana [Dm,F]
R: tarantella
O: Italy
B:
D:
Z: 1999 John Chambers <jc@trillian.mit.edu>
M: 6/8
L: 1/8
K: Dm
   Ade \
| "Dm"f>gf "A7"e>fe | "Dm"d2a eaa | "A7"eaa eaa | "Dm"fed Ade \
| "Dm"f>gf "A7"e>fe | "Dm"d2a eaa | "A7"eaa eaa | "Dm"d3 :|
|: aba \
| "A7"gef  gag | "Dm"fde fgf | "A7"e^cd efg | "Dm"afd a2a \
| "A7"gef  gag | "Dm"fde fgf | "A7"eba gfe | "Dm"d3 :|
|: DFA \
| "Dm"dz2 "Gm"dz2 | "Dm"d3 zcB | "A7"ABA GFE | EAF "Dm"D2z \
| "Dm"dz2 "Gm"dz2 | "Dm"d3 zcB | "A7"ABA GFE | "Dm fine"D3  :|
|: zAB \
| "F"cAF cAF | cAF cdc | "C7"BAG BAG | "F"cAF FAB \
| "F"cAF cAF | cAF c=Bc | "C7"edc BAG | "F"F3 :|
|: zFE \
| "Dm"DzD- DDF | AzA- AzA | "A7"GEF GAG | "Dm"FED zFE \
| "Dm"DzD- DDF | AzA- A^GA | "A7"cBA GFE | "Dm"D3 :|

